X: 16219
T: Greenland Man's Tune, The
R: hornpipe
M: 4/4
K: Edorian
|:E>c|d>Bc>A (3BcB E>F|D>FA>G F<DD>c|d>Bc>A (3BcB E2|G>AB<G E2-:|
E>A|B>^AB>c (3ded (3dcB|A<^GA>F D>EF<A|B2 B>c d2 d>B|A<Fd>F E2- E>A|
B>^AB>c d2 (3dcB|A2 A>F D>EF<A|d>fc>e B>^AB>c|d>BA<F E2||

